X:4
T:Fountainhall
F:Fountainhall
R:rant
C:Simon Dew
M:4/4
L:1/8
Q:1/2=110
K:Gdor
P:A
|:GF|"Gm"D2G2 B2AB|"F"cBAG F2GA|"C7/E"BAGF E2FG|"F"AGAB A2G2|
     "Gm"D2G2 B2AB|"F"cBAG F2GA|"C7/E"BAGF E2FG|"F"A6:|
P:B
|:GA|"Bb"B2d2 f2ef|"Am"gfec "Dm"A2GA|"Bb"B2d2 fdfg|"Am"e2dc "Dm"A2GA|
     "Bb"B2d2 f2ef|"Am"gfec "Dm"A2GA|"Bb"B2dc Bdfg| [1,2 "Am"e2dc "Dm"A2:|
    ["2 Last" "Am"e2dc "Dm"A2GF|"Gm"G6|]

